-----BEGIN PGP PUBLIC KEY BLOCK-----

xsFNBGpjT/YBEADhG7bTUMjWykJrfd3llYQoUjnaOyHvbFHmzm3HdtdpP3X02uG1
j8WXQpOp5W5pXMcwJy8wr7/Ps9tD9EgEBN5cLMNY6rXnvwSVgwq1vj/ui6UQ68iI
G3bdIf855Pd3Dw1MD6eLQb13zlOBIoDRLhrZSW7QqGIx69C78H5eZ6RC0VkazQWW
v589x57mjfOdZS8khi1Q7OmJexSLz3IReo+cMKNUCB0GT9ssEmc1N2hbzGGaMHbc
izrWDNVKmBlvQ66udxpMZF54RY69LWdhDHAscBm9LcMsxDt2X8ts0O6Xj7FQTuYA
AJphx575QkOdY6tHPg6xPgO4Ew+gViW6gb/jpWOXUW0TRpZZVXRkSOyRkPY2qQoL
kL6H1GIXr9r+yyuOAtOgV1uIlb35oZ9T+KLeO50WJM9Y6DVNoPn7kDf2Pok/+FyK
27vteDXG6YtMYwCiTGu2emogy9meefLMLoJa3JSCkm5a1An52k/XwtL4x2kZwl5l
W9mMZO0cA7FnGDs41gxuPP30IFif7zHk6ypYx6chGp+mX+qcItaqpFP5iyGi/avJ
2PxP9xrykiZOC1PxmNF2GQvruR72Zg531kaM0CDELhFNaiuMhCDycz68T1ouffuC
JQlJ1le0W1LUBNt5gKZjr3b5HqwtBXuRlrQgG1QN1exkl0z2OJ2TpEClgwARAQAB
zTFQSFAgQm95IFNjb3V0IFJlbGVhc2UgPHJlbGVhc2UtdjJAcGhwYm95c2NvdXQu
dWs+wsG7BBMBCABvBYJqY0/2AgsHCRCkSjb416zzbTUUAAAAAAAcABBzYWx0QG5v
dGF0aW9ucy5vcGVucGdwanMub3JnVc1AASasUEh4VSIDV7AD6wIVCAIWAAIZAQKb
AwIeARYhBOlp+asWeJfYdrapOqRKNvjXrPNtAAAeVRAA2O2WOtQSuFJEGEqGvyTS
hNroxqnGw6xTv4CzIK+pvm3DYNcblYU32YT81/m7ymZc08uE53Cgixz9vxqaJ3xS
/6L58z3iJeCQxcOsnrMJQaTQLIiUjmFHU1gA8vdOVLwaaxFtKJVmn4VCz0z7Nl49
sMJQxRVLeLRxPFQLFXkOct7IMx0gDeo40XBOZvWxhs9I/mIT9SoyLWOWxJ9erpT3
CPI4fOR3e/9i9JenjrJC3PzBq1Jy0daOKzbXdSNzhFsrzOVpUBEDFKHrmVOmuHTv
tMhwVvv1aDdxgG9Fz67JfGzZoXGSkwWGqwaw9Ojuf5kzriPACLmBBd/3kuFB9oKG
yhTz9vhCavI3Qb2SkYd2NEnEQnXL+i2MbWzbVa/p5sRDgCwOCAfg0/lbEKRcLk4f
OPaFF8/uHSS+UOpia0CpyvXfAk+U9wCu19fgs/iskIwUM5zS7UDXKy2+LCKv6LBM
01YU6sk9o4vY7yoYHmMa/qd8VAe1GK3/WHs6eOZ8jlSjj5CsTkD00k/u61t3Wzbx
as06dZpv/qblIAzieEZggH1q/thDq2wT8wX3SkU8OiOI10635vSOL+OwZgSBXLSd
d+HA9KGJG1s4vAk2cW62YaItiFTy/4JB3MFDRNPPJ8XW5sVsLoYqg89uos45VOGn
LsNdXgiXSbwP91+54g42IWQ=
=fdnZ
-----END PGP PUBLIC KEY BLOCK-----